.local/share/icons/Gruvbox-Plus-Dark/panel/24/rocketchat-tray.svg

<svg xmlns="http://www.w3.org/2000/svg" width="24" height="24" version="1.1">
 <defs>
  <style id="current-color-scheme" type="text/css">
   .ColorScheme-Text { color:#ebdbb2; } .ColorScheme-Highlight { color:#458588; }
  </style>
 </defs>
 <path style="fill:currentColor" class="ColorScheme-Text" d="M 4,4 C 4.625289,4.9191748 5.0814606,6.662158 5.3378906,8.681641 4.4662891,9.664932 4.0008959,10.819243 4,12 4.00265,13.214174 4.4964048,14.399175 5.4160156,15.398438 5.1963716,17.38357 4.740364,19.093055 4,20 6.101032,20 8.0025374,19.106296 9.3808594,17.662109 10.222682,17.883472 11.107941,17.997678 12,18 16.418278,18 20,15.313708 20,12 20,8.686291 16.418278,6 12,6 11.107941,6.0023218 10.222682,6.1165275 9.3808594,6.3378906 8.0025374,4.8937041 6.101032,4 4,4 Z m 8,4 a 6,4 0 0 1 0.652344,0.02539 c 0.0045,3.41e-4 0.0092,-3.48e-4 0.01367,0 a 6,4 0 0 1 0.05664,0.0059 6,4 0 0 1 5.175782,3.248047 c 0.0031,0.01117 0.0087,0.02201 0.01172,0.0332 A 6,4 0 0 1 18,12 6,4 0 0 1 17.91602,12.642578 c -0.0068,0.0274 -0.01184,0.05472 -0.01953,0.08203 A 6,4 0 0 1 17.625,13.375 6,4 0 0 1 13.324219,15.896484 c -0.004,6.36e-4 -0.0077,0.0013 -0.01172,0.002 a 6,4 0 0 1 -0.03125,0.0039 6,4 0 0 1 -0.482422,0.05664 c -0.07783,0.0073 -0.155536,0.01433 -0.234375,0.01953 A 6,4 0 0 1 12.015625,16 l -0.0098,0 A 6,4 0 0 1 12,16 6,4 0 0 1 9.4160156,15.603516 L 8.7480469,15.427734 7.9335938,16.28125 c -0.2143292,0.224571 -0.4977484,0.342544 -0.7402344,0.527344 0.06099,-0.40272 0.1643575,-0.768464 0.2109375,-1.189453 l 0.099609,-0.90625 -0.2460937,-0.267579 A 6,4 0 0 1 6.0605469,12.533203 c -0.00494,-0.02341 -0.00745,-0.04693 -0.011719,-0.07031 A 6,4 0 0 1 6,12 6,4 0 0 1 6.046875,11.523438 c 0.00351,-0.01891 0.00972,-0.03771 0.013672,-0.05664 A 6,4 0 0 1 12,8 Z m -3,3 c -0.5522847,0 -1,0.447715 -1,1 0,0.552285 0.4477153,1 1,1 0.5522847,0 1,-0.447715 1,-1 0,-0.552285 -0.4477153,-1 -1,-1 z m 3,0 c -0.552285,0 -1,0.447715 -1,1 0,0.552285 0.447715,1 1,1 0.552285,0 1,-0.447715 1,-1 0,-0.552285 -0.447715,-1 -1,-1 z m 3,0 c -0.552285,0 -1,0.447715 -1,1 0,0.552285 0.447715,1 1,1 0.552285,0 1,-0.447715 1,-1 0,-0.552285 -0.447715,-1 -1,-1 z"/>
</svg>

<svg width="24" height="24" version="1.1" xmlns="http://www.w3.org/2000/svg">
  <defs>
    <style id="current-color-scheme" type="text/css">.ColorScheme-Text { color:#ebdbb2; } .ColorScheme-Highlight { color:#458588; } .ColorScheme-NeutralText { color:#fe8019; } .ColorScheme-PositiveText { color:#689d6a; } .ColorScheme-NegativeText { color:#fb4934; }</style>
  </defs>
  <path class="ColorScheme-Text" d="m4 4c0.6253 0.9192 1.081 2.662 1.338 4.682-0.8716 0.9833-1.337 2.138-1.338 3.318 0.00265 1.214 0.4964 2.399 1.416 3.398-0.2196 1.985-0.6757 3.695-1.416 4.602 2.101 0 4.003-0.8937 5.381-2.338 0.8418 0.2214 1.727 0.3356 2.619 0.3379 4.418 0 8-2.686 8-6 0-3.314-3.582-6-8-6-0.8921 0.002322-1.777 0.1165-2.619 0.3379-1.378-1.444-3.28-2.338-5.381-2.338zm8 4a6 4 0 0 1 0.6523 0.02539c0.0045 3.41e-4 0.0092-3.48e-4 0.01367 0a6 4 0 0 1 0.05664 0.0059 6 4 0 0 1 5.176 3.248c0.0031 0.01117 0.0087 0.02201 0.01172 0.0332a6 4 0 0 1 0.08984 0.6875 6 4 0 0 1-0.08398 0.6426c-0.0068 0.0274-0.01184 0.05472-0.01953 0.08203a6 4 0 0 1-0.2715 0.6504 6 4 0 0 1-4.301 2.521c-4e-3 6.36e-4 -0.0077 0.0013-0.01172 2e-3a6 4 0 0 1-0.03125 0.0039 6 4 0 0 1-0.4824 0.05664c-0.07783 0.0073-0.1555 0.01433-0.2344 0.01953a6 4 0 0 1-0.5488 0.02145h-0.0098a6 4 0 0 1-0.005825 0 6 4 0 0 1-2.584-0.3965l-0.668-0.1758-0.8145 0.8535c-0.2143 0.2246-0.4977 0.3425-0.7402 0.5273 0.06099-0.4027 0.1644-0.7685 0.2109-1.189l0.09961-0.9062-0.2461-0.2676a6 4 0 0 1-1.197-1.912c-0.00494-0.02341-0.00745-0.04693-0.01172-0.07031a6 4 0 0 1-0.04883-0.4629 6 4 0 0 1 0.04688-0.4766c0.00351-0.01891 0.00972-0.03771 0.01367-0.05664a6 4 0 0 1 5.939-3.467zm-3 3c-0.5523 0-1 0.4477-1 1s0.4477 1 1 1 1-0.4477 1-1-0.4477-1-1-1zm3 0c-0.5523 0-1 0.4477-1 1s0.4477 1 1 1 1-0.4477 1-1-0.4477-1-1-1zm3 0c-0.5523 0-1 0.4477-1 1s0.4477 1 1 1 1-0.4477 1-1-0.4477-1-1-1z" fill="currentColor"/>
</svg>
